X:1
T:Title
%%score ( 1 2 ) 3
L:1/8
Q:1/4=83
M:2/4
K:Ab
V:1 treble nm="Drawbar Organ, Soprano"
V:2 treble 
V:3 bass nm="Church Organ, Glory to God (Wagner)"
V:1
 [CE]2 [EA]>[EA] | .[EA]4 | E2 [DB]>[DG] | .[CA]4 | [CE]2 [EA]>[Fd] | [Fd]2 [Ec]>[DB] | %6
w: By~From~Bridal~Chorus,~Lohengrin,~Wagner,~1850 * *||||||
 [EA]2 [=DG]>[DA] | .[EB]4 | [CE]2 [EA]>[EA] | .[EA]4 | E2 [DB]>[DG] | .[CA]4 | [CE]2 [EA]>[Ac] | %13
w: |||||||
 [Ge]2 [Ac]>[FA] | F2 [DB]>[Ec] | .[CA]4 | [Fd]2 [Ec]>[DB] | [DF]2 [DF][DF] | [DG]2 [CA]>[EB] | %19
w: ||||||
 .[EB]4 | [Fd]2 [Ec]>[DB] | [DF]2 [DF][DF] | [DG]2 [CA]>[EB] | B4 | [CE]2 [EA]>[EA] | .[EA]4 | %26
w: |||||||
 E2 [DB]>[DG] | .[CA]4 | [CE]2 [EA]>[Ac] | [Ge]2 [Ac]>[FA] | [Af]4 | [Ge]3 [Ge] | [EA]4- | [EA]4 |] %34
w: ||||||||
V:2
 x4 | x4 | x4 | x4 | x4 | x4 | x4 | x4 | x4 | x4 | x4 | x4 | x4 | x4 | x4 | x4 | x4 | x4 | x4 | %19
 x4 | x4 | x4 | x4 | E2 D2 | x4 | x4 | x4 | x4 | x4 | x4 | x4 | x4 | x4 | x4 |] %34
V:3
 A,2 [A,C]>[A,C] | .[A,C]4 | [A,C]2 [E,G,]>[E,B,] | .[A,,A,]4 | A,2 [A,C]>[A,D] | [A,D]2 A,>A, | %6
 [A,C]2 [F,A,]>[F,A,] | .[E,G,]4 | A,2 [A,C]>[A,C] | .[A,C]4 | [A,C]2 [E,G,]>[E,B,] | .[A,,A,]4 | %12
 A,2 [A,C]>[A,E] | [C,C]2 [F,C]>[F,C] | [D,B,]2 [E,G,]>[E,G,] | .A,4 | A,2 A,>A, | %17
 [D,B,]2 [D,B,][D,B,] | [B,,E,]2 [A,,E,]>[E,G,] | .[E,G,]4 | A,2 A,>A, | [D,B,]2 [D,B,][D,B,] | %22
 [B,,E,]2 [A,,E,]>[E,G,] | [E,G,]4 | A,2 [A,C]>[A,C] | .[A,C]4 | [A,C]2 [E,G,]>[E,B,] | .[A,,A,]4 | %28
 A,2 [A,C]>[A,E] | [C,C]2 [F,C]>[F,C] | [D,B,]4 | [E,D]3 [E,D] | [A,C]4- | [A,C]4 |] %34

